X:1
T:9 Lieder und Gesänge, Op.63
T:An ein Bild
T:3. An ein Bild
T:9 Lieder und Gesänge, Op.63
T:Johannes Brahms
T:Max von Schenkendorf
T:Creative Commons copyright waiver (CC0 1.0 Universal)
T:Creative Commons copyright waiver (CC0 1.0 Universal)
T:Creative Commons copyright waiver (CC0 1.0 Universal)
T:Creative Commons copyright waiver (CC0 1.0 Universal)
C:Johannes Brahms
Z:Max von Schenkendorf
Z:Creative Commons copyright waiver (CC0 1.0 Universal)
L:1/8
Q:1/4=92
M:4/4
K:Ab
V:1 treble nm="Singstimme\nVoice"
V:1
"^Andante" z z2 | z4 z2 A2 | G3 A B2 e2 | f3 d c2 _c2 | B3 B e2 =c2 | (B3 F) G2 B2 | %6
w: |Was|schaust du mich so|freund- lich an, o|Bild aus wei- ter|Fer- * ne, und|
 d3 B (GB) (=de) | _f3 f e2 _d2 | c3 c (ed) (dc) | (c3 B) B2 =B2 | c3 e (af) (dc) | c3 B f3 e | %12
w: win- kest dem * ver- *|bann- ten Mann? Er|kä- me gar * zu *|ger- * ne, er|kä- me gar * zu *|ger- ne, gar zu|
 d4 c2 z2 | z4 z2 A2 | G3 A B2 e2 | f3 d c2 _c2 | B3 B e2 =c2 | (B3 F) G2 B2 | d3 B (GB) (=de) | %19
w: ger- ne.|Die|gan- ze Ju- gend|tut sich auf, wenn|ich an dich ge-|den- * ke, als|ob ich noch * den *|
 _f3 f e2 _d2 | c3 c (ed) (dc) | (c3 B) B2 =B2 | (c3 e af) (dc) | c3 B f3 e | d4 c2 z2 | z4 z2 A2 | %26
w: al- ten Lauf nach|dei- nem Hau- * se *|len- * ke, nach|dei- * * * nem, *|dei- nem Hau- se|len- ke.|Gleich|
 G3 A B2 B2 | (B2 A) B c2 c2 | (c2 B) c (dB) (GA) | (BG) E2 z B A B | _c3 c (c2 B) c | d4 z e d e | %32
w: ei- nem,  der ins|tie\-- * fe Meer die|Bli- * cke  lässt * ver- *|sin- * ken, nicht sieht, nicht|hört, ob um * ihn|her viel tau- send|
 (_fd) (Bd) (fd) B d | (_fe) (ed) (d_c) (BA) | G2 B2 z4 | z4 z2 =c2 | B3 c d2 d2 | (d2 c) d e3 e | %38
w: Schä- * tze * win- * ken, viel|tau- * send * Schä- * tze *|win- ken.|Gleich|ei- nem, der am|Fir- * ma- ment nach|
 (e2 d) e (fd) (Bc) | (dB) (GA) z B A B | _c3 c (c2 B) c | d4 z e d e | (_fd) (Bd) (fd) B d | %43
w: fer- * nem Ster- * ne *|bli- * cket, * nur die- sen|kennt, nur die- * sen|nennt und sich an|ihm * ent- * zü- * cket, an|
 (_fe) (ed) (d_c) (BA) | G2 B2 z4 | z8 | z4 z2 A2 | G3 A B2 e2 | f3 d c2 _c2 | B3 B e2 =c2 | %50
w: ihm, * an * ihm * ent- *|zü- cket:||ist|all mein Seh- nen,|all mein Mut in|dir, o Bild, ge-|
 (B3 =D) E2 B2 | d3 B (GB) (=de) | _f3 _d B2 d2 | c3 c (ed) (dc) | (c3 B) B2 =B2 | (c3 e af) (dc) | %56
w: grün- * det, und|im- mer noch * von *|glei- cher Glut, von|glei- cher Lust * ent- *|zün- * det, von|glei- * * * cher, *|
 c3 B f3 e | (e3 G) A2 z2 | z8 |] %59
w: glei- cher Lust ent-|zün- * det.||

